src/icon/banking/card-activate/icon_card-activate_xxl_white.svg

<?xml version="1.0" encoding="UTF-8"?>
<svg width="48px" height="48px" viewBox="0 0 48 48" version="1.1" xmlns="http://www.w3.org/2000/svg" xmlns:xlink="http://www.w3.org/1999/xlink">
    <!-- Generator: Sketch 49 (51002) - http://www.bohemiancoding.com/sketch -->
    <title>icon_card-activate_xxl_white</title>
    <desc>Created with Sketch.</desc>
    <defs></defs>
    <g id="Page-1" stroke="none" stroke-width="1" fill="none" fill-rule="evenodd">
        <g id="icon_card_activate_xxl_white">
            <rect id="_ph_" x="0" y="0" width="48" height="48"></rect>
            <path d="M27.0642964,13.5 C29.0947675,14.1200193 30.8987244,15.3414066 32.2217933,17.0021749 C33.0335948,18.0211802 33.6506866,19.1877664 34.0399237,20.4582725 C35.3992673,24.8952961 33.6689747,29.6555452 29.8713574,32.2092899 C29.0159388,32.7845245 28.075042,33.2330572 27.0700047,33.5396929 C26.0009498,33.8658604 24.9022991,34.0183591 23.8058137,33.9982418 C19.2995607,33.9155654 15.2999653,30.9530745 13.9614936,26.5841783 C12.2663682,21.0511315 15.3869072,15.1943801 20.9314126,13.5027579 L21.495848,15.3527662 C16.9731991,16.7326212 14.4291072,21.5074738 15.8108477,26.0176031 C16.896515,29.561322 20.1455005,31.9965634 23.8412945,32.0643702 C24.7388151,32.0808371 25.6348448,31.9553416 26.5055693,31.6896846 C27.3243059,31.439889 28.0921661,31.0748749 28.7920294,30.604245 C31.9038261,28.511687 33.2930035,24.6232945 32.1905696,21.0248477 C31.874178,19.9921161 31.373205,19.0411393 30.708978,18.2073754 C29.6322311,16.8558002 28.1602635,15.8570245 26.4994235,15.3498748 L27.0642964,13.5 Z M27.0642964,13.5 C29.0947675,14.1200193 30.8987244,15.3414066 32.2217933,17.0021749 C33.0335948,18.0211802 33.6506866,19.1877664 34.0399237,20.4582725 C35.3992673,24.8952961 33.6689747,29.6555452 29.8713574,32.2092899 C29.0159388,32.7845245 28.075042,33.2330572 27.0700047,33.5396929 C26.0009498,33.8658604 24.9022991,34.0183591 23.8058137,33.9982418 C19.2995607,33.9155654 15.2999653,30.9530745 13.9614936,26.5841783 C12.2663682,21.0511315 15.3869072,15.1943801 20.9314126,13.5027579 L21.495848,15.3527662 C16.9731991,16.7326212 14.4291072,21.5074738 15.8108477,26.0176031 C16.896515,29.561322 20.1455005,31.9965634 23.8412945,32.0643702 C24.7388151,32.0808371 25.6348448,31.9553416 26.5055693,31.6896846 C27.3243059,31.439889 28.0921661,31.0748749 28.7920294,30.604245 C31.9038261,28.511687 33.2930035,24.6232945 32.1905696,21.0248477 C31.874178,19.9921161 31.373205,19.0411393 30.708978,18.2073754 C29.6322311,16.8558002 28.1602635,15.8570245 26.4994235,15.3498748 L27.0642964,13.5 Z" id="Oval-4" fill="#FFFFFF" fill-rule="nonzero" opacity="0.300000012"></path>
            <polygon id="Path-2" fill="#FFFFFF" fill-rule="nonzero" opacity="0.900000036" points="23.5 12 23.5 24 24.5 24 24.5 12"></polygon>
            <path d="M24,46.9787234 C36.6907985,46.9787234 46.9787234,36.6907985 46.9787234,24 C46.9787234,11.3092015 36.6907985,1.0212766 24,1.0212766 C11.3092015,1.0212766 1.0212766,11.3092015 1.0212766,24 C1.0212766,36.6907985 11.3092015,46.9787234 24,46.9787234 Z M24,48 C10.745166,48 0,37.254834 0,24 C0,10.745166 10.745166,0 24,0 C37.254834,0 48,10.745166 48,24 C48,37.254834 37.254834,48 24,48 Z" id="Oval-5" fill="#FFFFFF" fill-rule="nonzero"></path>
        </g>
    </g>
</svg>

<svg width="48" height="48" viewBox="0 0 48 48" xmlns="http://www.w3.org/2000/svg"><g fill="none" fill-rule="evenodd"><path d="M0 0h48v48H0z"/><path d="M27.064 13.5a10.53 10.53 0 0 1 5.158 3.502A10.469 10.469 0 0 1 27.07 33.54a10.498 10.498 0 0 1-13.109-6.956c-1.695-5.533 1.426-11.39 6.97-13.081l.565 1.85c-4.523 1.38-7.067 6.154-5.685 10.665a8.564 8.564 0 0 0 10.695 5.672 8.534 8.534 0 0 0 4.203-13.482 8.597 8.597 0 0 0-4.21-2.858l.565-1.85zm0 0a10.53 10.53 0 0 1 5.158 3.502A10.469 10.469 0 0 1 27.07 33.54a10.498 10.498 0 0 1-13.109-6.956c-1.695-5.533 1.426-11.39 6.97-13.081l.565 1.85c-4.523 1.38-7.067 6.154-5.685 10.665a8.564 8.564 0 0 0 10.695 5.672 8.534 8.534 0 0 0 4.203-13.482 8.597 8.597 0 0 0-4.21-2.858l.565-1.85z" fill="#FFF" fill-rule="nonzero" opacity=".3"/><path fill="#FFF" fill-rule="nonzero" opacity=".9" d="M23.5 12v12h1V12z"/><path d="M24 46.979c12.69 0 22.979-10.288 22.979-22.979C46.979 11.31 36.69 1.021 24 1.021 11.31 1.021 1.021 11.31 1.021 24 1.021 36.69 11.31 46.979 24 46.979zM24 48C10.745 48 0 37.255 0 24S10.745 0 24 0s24 10.745 24 24-10.745 24-24 24z" fill="#FFF" fill-rule="nonzero"/></g></svg>
